resources/icons/16px/excavator.svg

<svg width="16" height="16" viewBox="0 0 16 16" fill="none" xmlns="http://www.w3.org/2000/svg">
    <path fill-rule="evenodd" clip-rule="evenodd"
        d="M14.2193 5.99999C14.6782 5.99999 15.0781 6.31229 15.1894 6.75746L15.6894 8.75746C15.8472 9.38861 15.3699 10 14.7193 10H8.00006C7.44778 10 7.00006 9.55228 7.00006 9V5.30277C7.00006 5.10535 7.0585 4.91234 7.16801 4.74807L8.7032 2.4453C8.88866 2.1671 9.20089 2 9.53525 2H12.0001C12.5523 2 13.0001 2.44771 13.0001 3V5.99999H14.2193ZM10.33 3.99999L9 5.99999L11.0001 5.99999V4L10.33 3.99999Z"
        fill="#5F6B7C" />
    <path
        d="M1.72215 1.11142C1.86912 0.523524 2.50104 0.200416 3.06368 0.425474L5.99093 1.59637C6.53413 1.81365 6.77561 2.44879 6.51397 2.97206L6 3.99999L3 3L2 7.99999H5L2.76294 10.1098C2.50871 10.3496 2.14546 10.4452 1.81522 10.331C0.781705 9.97332 0.0455376 9.42395 0.00206846 8.12352C-0.000663091 8.04181 0.0100623 7.95988 0.029893 7.88056L0.250031 7L1.72215 1.11142Z"
        fill="#5F6B7C" />
    <path fill-rule="evenodd" clip-rule="evenodd"
        d="M3 13.5C3 12.1193 4.11929 11 5.5 11H13.5C14.8807 11 16 12.1193 16 13.5C16 14.8807 14.8807 16 13.5 16H5.5C4.11929 16 3 14.8807 3 13.5ZM5 13.5C5 13.2239 5.22386 13 5.5 13H13.5C13.7761 13 14 13.2239 14 13.5C14 13.7761 13.7761 14 13.5 14H5.5C5.22386 14 5 13.7761 5 13.5Z"
        fill="#5F6B7C" />
</svg>

<svg xmlns="http://www.w3.org/2000/svg" viewBox="0 0 16 16">
  <path d="M14.22 6a1 1 0 0 1 .97.757l.5 2A1 1 0 0 1 14.72 10H8a1 1 0 0 1-1-1V5.303a1 1 0 0 1 .168-.555l1.535-2.303A1 1 0 0 1 9.535 2H12a1 1 0 0 1 1 1v3zm-3.89-2L9 6h2V4zM1.722 1.111A1 1 0 0 1 3.064.425L5.99 1.596a1 1 0 0 1 .523 1.376L6 4 3 3 2 8h3l-2.237 2.11a.94.94 0 0 1-.948.221C.782 9.973.045 9.424.002 8.124A.9.9 0 0 1 .03 7.88L.25 7zM3 13.5A2.5 2.5 0 0 1 5.5 11h8a2.5 2.5 0 0 1 0 5h-8A2.5 2.5 0 0 1 3 13.5m2 0a.5.5 0 0 1 .5-.5h8a.5.5 0 0 1 0 1h-8a.5.5 0 0 1-.5-.5"/>
</svg>
